src/assets/outline/Spotify.svg

<svg width="24" height="24" viewBox="0 0 24 24"  xmlns="http://www.w3.org/2000/svg">
<path d="M12 22.75C6.07 22.75 1.25 17.93 1.25 12C1.25 6.07 6.07 1.25 12 1.25C17.93 1.25 22.75 6.07 22.75 12C22.75 17.93 17.93 22.75 12 22.75ZM12 2.75C6.9 2.75 2.75 6.9 2.75 12C2.75 17.1 6.9 21.25 12 21.25C17.1 21.25 21.25 17.1 21.25 12C21.25 6.9 17.1 2.75 12 2.75Z" />
<path d="M17.4802 11.4192C17.3302 11.4192 17.1802 11.3692 17.0402 11.2792C14.0602 9.13916 10.2402 8.66916 6.84022 10.0292C6.45022 10.1792 6.02022 9.98915 5.87022 9.60915C5.72022 9.22915 5.91022 8.78918 6.29022 8.63918C10.1702 7.09918 14.5202 7.62917 17.9202 10.0692C18.2602 10.3092 18.3302 10.7792 18.0902 11.1192C17.9502 11.3092 17.7202 11.4192 17.4802 11.4192Z" />
<path d="M15.9098 14.1097C15.7598 14.1097 15.6098 14.0597 15.4698 13.9697C13.3498 12.4497 10.6399 12.1197 8.20985 13.0797C7.82985 13.2297 7.38985 13.0397 7.23985 12.6597C7.08985 12.2697 7.27985 11.8397 7.65985 11.6897C10.5598 10.5397 13.8098 10.9397 16.3398 12.7597C16.6798 12.9997 16.7498 13.4697 16.5098 13.8097C16.3698 13.9997 16.1398 14.1097 15.9098 14.1097Z" />
<path d="M14.81 16.8996C14.66 16.8996 14.51 16.8496 14.37 16.7596C12.83 15.6596 10.86 15.4196 9.09999 16.1096C8.71999 16.2596 8.27999 16.0696 8.12999 15.6896C7.97999 15.2996 8.16998 14.8696 8.54998 14.7196C10.79 13.8296 13.29 14.1396 15.24 15.5396C15.58 15.7796 15.65 16.2496 15.41 16.5896C15.28 16.7896 15.05 16.8996 14.81 16.8996Z" />
</svg>

<?xml version="1.0" encoding="UTF-8"?>
<svg width="24" height="24" viewBox="0 0 24 24" xmlns="http://www.w3.org/2000/svg">
 <path d="m12 22.75c-5.93 0-10.75-4.82-10.75-10.75s4.82-10.75 10.75-10.75 10.75 4.82 10.75 10.75-4.82 10.75-10.75 10.75zm0-20c-5.1 0-9.25 4.15-9.25 9.25s4.15 9.25 9.25 9.25 9.25-4.15 9.25-9.25-4.15-9.25-9.25-9.25z"/>
 <path d="m17.48 11.419c-0.15 0-0.3-0.05-0.44-0.14-2.98-2.14-6.8-2.61-10.2-1.25-0.39 0.15-0.82-0.04005-0.97-0.42005s0.04-0.81997 0.42-0.96997c3.88-1.54 8.23-1.01 11.63 1.43 0.34 0.24 0.41 0.71 0.17 1.05-0.14 0.19-0.37 0.3-0.61 0.3z"/>
 <path d="m15.91 14.11c-0.15 0-0.3-0.05-0.44-0.14-2.12-1.52-4.8299-1.85-7.26-0.89-0.38 0.15-0.82-0.04-0.97-0.42-0.15-0.39 0.04-0.82 0.42-0.97 2.9-1.15 6.15-0.75 8.68 1.07 0.34 0.24 0.41 0.71 0.17 1.05-0.14 0.19-0.37 0.3-0.6 0.3z"/>
 <path d="m14.81 16.9c-0.15 0-0.3-0.05-0.44-0.14-1.54-1.1-3.51-1.34-5.27-0.65-0.38 0.15-0.82-0.04-0.97-0.42-0.15-0.39 0.03999-0.82 0.41999-0.97 2.24-0.89 4.74-0.58 6.69 0.82 0.34 0.24 0.41 0.71 0.17 1.05-0.13 0.2-0.36 0.31-0.6 0.31z"/>
</svg>
